src/images/wow.svg

<svg width="145" height="55" viewBox="0 0 145 55" fill="none" xmlns="http://www.w3.org/2000/svg">
<path d="M10 5V0H135V5H140V10H145V45H140V50H135V55H10V50H5V45H0V10H5V5H10Z" fill="#E31CB8"/>
<path d="M10 5V0H130V5H135V10H140V40H135V45H130V50H10V45H5V40H0V10H5V5H10Z" fill="#FFE600"/>
<path d="M29.0345 36V32.8571H26V14H32.069V26.5714H35.1034V14H38.1379V26.5714H41.1724V14H47.2414V32.8571H44.2069V36H41.1724V32.8571H38.1379V29.7143H35.1034V32.8571H32.069V36H29.0345Z" fill="#9A1FE2"/>
<path d="M53.3103 36V32.8571H50.2759V17.1429H53.3103V14H68.4828V17.1429H71.5172V32.8571H68.4828V36H53.3103ZM56.3448 32.8571H65.4483V17.1429H56.3448V32.8571Z" fill="#9A1FE2"/>
<path d="M77.5862 36V32.8571H74.5517V14H80.6207V26.5714H83.6552V14H86.6897V26.5714H89.7241V14H95.7931V32.8571H92.7586V36H89.7241V32.8571H86.6897V29.7143H83.6552V32.8571H80.6207V36H77.5862Z" fill="#9A1FE2"/>
<path d="M104.897 29.7143V14H114V23.4286H110.966V29.7143H104.897ZM104.897 36V32.8571H110.966V36H104.897Z" fill="#9A1FE2"/>
</svg>

<svg width="145" height="55" viewBox="0 0 145 55" fill="none" xmlns="http://www.w3.org/2000/svg"><path d="M10 5V0h125v5h5v5h5v35h-5v5h-5v5H10v-5H5v-5H0V10h5V5h5z" fill="#E31CB8"/><path d="M10 5V0h120v5h5v5h5v30h-5v5h-5v5H10v-5H5v-5H0V10h5V5h5z" fill="#FFE600"/><path d="M29 36v-3.1h-3V14h6v12.6h3.1V14h3v12.6h3V14h6.1v18.9h-3V36h-3v-3.1h-3v-3.2H35V33h-3V36h-3zM53.3 36v-3.1h-3V17h3V14h15.2v3.1h3V33h-3V36H53.3zm3-3.1h9.1V17h-9V33zM77.6 36v-3.1h-3V14h6v12.6h3V14h3v12.6h3.1V14h6v18.9h-3V36h-3v-3.1h-3v-3.2h-3V33h-3V36h-3.1zM104.9 29.7V14h9.1v9.4h-3v6.3h-6.1zm0 6.3v-3.1h6V36h-6z" fill="#9A1FE2"/></svg>
